X: 5
T: The Ivy Leaf
R: reel
M: 4/4
L: 1/8
K: Amix
AEAe cAec|Aece dBGz|AEAe cAec|AGEF GzBG|
Ae~e2 ce~e2|Aece dBGB|AEAe cAec|AGEF GzBd||
eaag eABd|eg~g2 dz (3Bcd|eaag edcA|GBEF GzBd|
eaag eABd|eg~g2 egdB|AGAB =cBcd|ez~f2 gedB||
A2~A2 (3Bcd ec|Aece dBGz|AEAe cAec|AGEF GzBG|
Ae~e2 ce~e2|Aece dBGz|AEAe cAec|AGEF GzBd||
eaag eABd|eg~g2 dG (3Bcd|ezag edcA|GBEF GABd|
ezag eafa|~g3e dBGB|AGAB ~=c3d|ezfa gedB||


Tune 1112	Setting 1112

